X:130
T: Other High Reel
S: "Sully's Irish Music Book"
Z: B.Black
L: 1/8
M: 4/4
R: reel
K: D
fedf edAG|FD (3EFG A=cBA|GD (3EFG Adde|fded cdeg|
fedf edAG|FD (3EFG A=cBA|G2 FG Addc|A2 GE FD D2 :|
a2 fa dafa|a2 fa dafa|b2 gb ebgb|b2 gb ebgb|
a2 fa dafa|a2 fa dafa|bgaf gedB|ABAG FD D2 :|

